X:1
T:Title
%%score { 1 | 2 }
L:1/8
M:3/4
K:Bb
V:1 treble nm="Grand Piano"
V:2 bass 
V:1
 z2 z2[Q:1/4=100] [Fd]>[Ec] | [DB]3 [B,DF] [B,FA]>[B,EG] | [B,EG]4 [B,F][B,F] | %3
 [B,FB]3 [CF] [B,FB][Fd] |[M:2/4] [Fc]4 |[M:1/4] [Fd]>[Ec] |[M:3/4] [DB]3 [DF] [FA]>G | G4 FF | %8
 [FB][Gc] [Fd]2 [Ec]2 |[M:2/4] [DB]4 |[M:1/4] d>d |[M:3/4] c3 c de | [Fd]4 d>d | f3 [Fd] [FB][Fd] | %14
 [Fc]6 |[M:1/4] [Fd]>[Ec] |[M:3/4] [DB]3 [DF] [FA]>G | G4 FF | [FB][Gc] [Fd]2 [Ec]2 | %19
[M:2/4] [DB]4 |] %20
V:2
 z2 z2 [B,,B,]>[B,,B,] | [B,,F,]3 B,, E,>E, | E,4 D,D, | D,3 E, D,[B,,B,] |[M:2/4] [F,A,]4 | %5
[M:1/4] [B,,B,]>[B,,B,] |[M:3/4] [B,,F,]3 [B,,B,] [E,B,]>[E,B,E] | [E,B,E]4 [F,B,D][E,A,C] | %8
 [D,B,][E,B,] [F,B,]2 [F,A,]2 |[M:2/4] [B,,B,]4 |[M:1/4][K:treble] [B,F]>[B,F] | %11
[M:3/4] [F,A,F]3 [F,A,F] [F,B,F][K:bass][F,CF] | [B,,B,]4[K:treble] [B,F]>[B,F] | %13
 [B,DF]3[K:bass] [B,,B,] [D,B,][B,,B,] | [F,A,]6 |[M:1/4] [B,,B,]>[B,,B,] | %16
[M:3/4] [B,,F,]3 [B,,B,] [E,B,]>[E,B,E] | [E,B,E]4 [F,B,D][E,A,C] | [D,B,][E,B,] [F,B,]2 [F,A,]2 | %19
[M:2/4] [B,,B,]4 |] %20

